brandFactory_export/3.Masa/Flor_3Masa.svg

<?xml version="1.0" encoding="UTF-8"?>
<svg width="24px" height="24px" viewBox="0 0 24 24" version="1.1" xmlns="http://www.w3.org/2000/svg" xmlns:xlink="http://www.w3.org/1999/xlink">
    <title>3.Masa/Flor_3Masa</title>
    <g id="Symbols" stroke="none" stroke-width="1" fill="none" fill-rule="evenodd">
        <g id="3.Masa/Flor_3Masa" fill="#5CB615" fill-rule="nonzero">
            <path d="M11.8319328,14.8403361 C11.7915966,14.8268908 11.7546218,14.8134454 11.7109244,14.8134454 C10.5176471,14.7865546 9.80840336,14.3159664 9.54957983,13.3781513 C9.54621849,13.3579832 9.52941176,13.3445378 9.52268908,13.3277311 L9.52268908,13.307563 C9.45546218,13.0352941 9.41848739,12.7193277 9.41848739,12.3630252 C9.41848739,11.4218487 9.67394958,10.7428571 10.1815126,10.3529412 C10.2016807,10.3361345 10.2151261,10.312605 10.2319328,10.292437 C10.2621849,10.2823529 10.292437,10.2857143 10.3193277,10.2689076 C10.6957983,10.0336134 11.2,9.91596639 11.8084034,9.91596639 C12.4235294,9.91596639 12.9210084,10.0302521 13.287395,10.2588235 C13.3142857,10.2756303 13.3445378,10.2789916 13.3714286,10.292437 C13.3882353,10.3092437 13.4016807,10.3327731 13.4218487,10.3462185 C13.9361345,10.7294118 14.1983193,11.4084034 14.1983193,12.3630252 C14.1983193,12.7193277 14.1647059,13.0319328 14.097479,13.2907563 C14.0941176,13.297479 14.097479,13.307563 14.0941176,13.3142857 C14.0941176,13.3210084 14.087395,13.3243697 14.087395,13.3310924 C13.8319328,14.2890756 13.1663866,14.7596639 11.989916,14.8 C11.9361345,14.8033613 11.8823529,14.8201681 11.8319328,14.8403361 M20.2957983,14.6890756 C22.9915966,13.9226891 24.1512605,11.8252101 23.4016807,9.07563025 C22.6487395,6.33277311 20.5915966,5.15630252 17.8957983,5.91932773 C17.1193277,6.14117647 16.312605,6.67563025 15.5495798,7.32773109 C15.9764706,6.38991597 16.2756303,5.43529412 16.2756303,4.60504202 C16.2823529,3.20672269 15.8756303,2.04705882 15.102521,1.25378151 C14.3294118,0.460504202 13.1966387,0.0369747899 11.8252101,0.0302521008 L11.8218487,0.0302521008 C9.02184874,0.0302521008 7.3512605,1.73109244 7.3512605,4.57478992 C7.34453782,5.42857143 7.64705882,6.4 8.08067227,7.35462185 C7.31764706,6.69915966 6.51092437,6.16134454 5.73445378,5.9394958 C4.41344538,5.55966387 3.21008403,5.64705882 2.25210084,6.19495798 C1.29747899,6.74285714 0.594957983,7.74453782 0.225210084,9.09579832 C-0.144537815,10.4436975 -0.0537815126,11.6739496 0.484033613,12.6453782 C1.02184874,13.6201681 2.00672269,14.3327731 3.32773109,14.7092437 C3.72436975,14.8235294 4.16806723,14.8705882 4.63529412,14.8705882 C4.86722689,14.8705882 5.11596639,14.8403361 5.35798319,14.8168067 C4.67226891,15.2806723 4.06386555,15.8084034 3.68067227,16.3831933 C2.91092437,17.5428571 2.61176471,18.7361345 2.81680672,19.8319328 C3.02184874,20.9277311 3.73109244,21.9226891 4.86722689,22.7058824 C5.76806723,23.3344538 6.69243697,23.6571429 7.57647059,23.6571429 C7.80168067,23.6571429 8.02352941,23.6369748 8.24201681,23.5932773 C9.31764706,23.3848739 10.2957983,22.6621849 11.0689076,21.5058824 C11.4386555,20.9512605 11.687395,20.2218487 11.8554622,19.4386555 C12.0268908,20.2117647 12.2722689,20.9344538 12.6386555,21.4857143 C13.4084034,22.6420168 14.3865546,23.3647059 15.4621849,23.5731092 C15.6840336,23.6168067 15.9092437,23.6403361 16.1378151,23.6403361 C17.0184874,23.6403361 17.9394958,23.3210084 18.8403361,22.6957983 C21.1563025,21.0991597 21.6,18.7327731 20.0302521,16.3663866 C19.6470588,15.7915966 19.0420168,15.2705882 18.3596639,14.8067227 C18.5714286,14.8235294 18.789916,14.8504202 18.994958,14.8504202 C19.4621849,14.8504202 19.902521,14.8033613 20.2957983,14.6890756" id="Flor_3Masa"></path>
        </g>
    </g>
</svg>

<svg width="24" height="24" viewBox="0 0 24 24" xmlns="http://www.w3.org/2000/svg"><path d="M11.832 14.84c-.04-.013-.077-.027-.121-.027-1.193-.026-1.903-.497-2.161-1.435-.004-.02-.02-.033-.027-.05v-.02a3.959 3.959 0 01-.105-.945c0-.941.256-1.62.764-2.01.02-.017.033-.04.05-.06.03-.01.06-.007.087-.024.377-.235.881-.353 1.49-.353.615 0 1.112.114 1.478.343.027.017.058.02.084.033.017.017.03.04.05.054.515.383.777 1.062.777 2.017 0 .356-.033.669-.1.928-.004.006 0 .017-.004.023 0 .007-.007.01-.007.017-.255.958-.92 1.429-2.097 1.469a.521.521 0 00-.158.04m8.464-.15c2.696-.767 3.855-2.865 3.106-5.614-.753-2.743-2.81-3.92-5.506-3.157-.777.222-1.583.757-2.346 1.409.426-.938.726-1.893.726-2.723.006-1.398-.4-2.558-1.173-3.351C14.329.46 13.197.037 11.825.03h-.003c-2.8 0-4.47 1.701-4.47 4.545-.007.854.295 1.825.729 2.78-.763-.656-1.57-1.194-2.347-1.416-1.32-.38-2.524-.292-3.482.256-.955.548-1.657 1.55-2.027 2.9-.37 1.349-.279 2.579.259 3.55.538.975 1.523 1.688 2.844 2.064.396.115.84.162 1.307.162.232 0 .481-.03.723-.054-.686.464-1.294.991-1.677 1.566-.77 1.16-1.07 2.353-.864 3.449.205 1.096.914 2.09 2.05 2.874.901.628 1.825.951 2.71.951.225 0 .447-.02.665-.064 1.076-.208 2.054-.93 2.827-2.087.37-.555.618-1.284.786-2.067.172.773.417 1.495.784 2.047.77 1.156 1.748 1.879 2.823 2.087.222.044.447.067.676.067.88 0 1.801-.319 2.702-.944 2.316-1.597 2.76-3.963 1.19-6.33-.383-.574-.988-1.095-1.67-1.56.211.018.43.044.635.044.467 0 .908-.047 1.3-.16" fill="#5CB615" fill-rule="nonzero"/></svg>
